X:281
T:The Kylebrack Rambler
C:Finbar Dwyer
Z:robin.beech@mcgill.ca
S:Fretless
R:reel
M:4/4
L:1/8
K:Ddor
DA,A,2 DA,FA,| DA,A,2 CA,G,A,| DA,A,G, A,CDE | FDAF G2FG |
Addc dcAB | cGAc GECE | DA,A,G, A,CDE|1 FAGE D2FE :|2 FAGE D2^FG |:
A^FGA FDD2| dedB cGAB | c2Gc EcGe| dcAB cA^cA |
d2fe dcAB |cGAc GECE |DA,A,G, A,CDE |1 FAGE D2^FG :|2 FAGE D4 |]
